X: 18017
T: Hugo's Big
R: reel
M: 4/4
K: Amajor
c2 ce dcBA|cAd2 BcdB|cAce dcBA|GABG A2AB|
c2 ce dcBA|cAd2 BcdB|cAce dcBA|1 GABG AEAB:|2 GABG ABce||
f2 z d cd e2-|edcB ABce|B2 EFGA B2|EFGA Bcde|
f2 z d cd e2-|edcB ABce|B2 EFGA ~B2|1 BdcB ABce:|2 BdcB A2 z2||

